app/[lang]/(home)/(new-home)/assets/aiagent-appicons/qwen.svg

<svg width="32" height="32" viewBox="0 0 32 32" fill="none" xmlns="http://www.w3.org/2000/svg">
<g opacity="0.5">
<path d="M29.8438 18.9758L26.3625 12.8789L27.8563 10.0164C28.0625 9.74453 28.1156 9.34453 28.0312 9.02266L26.1156 5.56328C25.9688 5.33516 25.7156 5.19453 25.4438 5.18828H18.3219L16.7281 2.40078C16.6156 2.18203 16.4 2.03203 16.1562 2.00391H12.3969C12.1188 2.01016 11.9219 2.21328 11.7844 2.45391L11.725 2.55078L8.16875 8.64766H4.75625C4.475 8.64141 4.20937 8.78203 4.05937 9.02266L2.09375 12.5039C1.96875 12.7539 1.96875 13.0508 2.09375 13.3008L5.62813 19.4477L4.03438 22.2352C3.90938 22.4852 3.90938 22.7789 4.03438 23.032L5.85 26.2195C5.99687 26.4633 6.2625 26.6164 6.54688 26.6164H13.6656L15.3813 29.6008C15.5125 29.8258 15.7437 29.9727 16.0031 30.0008H20.0344C20.3125 29.9945 20.5687 29.8445 20.7062 29.6039L24.2188 23.4539H27.3563C27.6344 23.4289 27.8844 23.2727 28.0281 23.032L29.8438 19.8227C30.0125 19.5633 30.0125 19.232 29.8438 18.9758ZM25.4406 19.3758L23.625 16.0164L16.1562 29.1789L14.1156 25.8195H6.65L8.44375 22.5602H12.25L4.78125 9.44453H8.6875L12.3969 2.82266L14.2625 6.08203L12.3469 9.44141H27.2812L25.3906 12.7789L29.15 19.3727H25.4406V19.3758Z" fill="#605BEC"/>
<path d="M15.9812 20.6414L20.6375 13.1758H11.3031L15.9812 20.6414Z" fill="#605BEC"/>
</g>
</svg>

<svg xmlns="http://www.w3.org/2000/svg" fill="none" viewBox="0 0 32 32">
  <g fill="#605BEC" opacity=".5">
    <path
      d="m29.84 18.98-3.48-6.1 1.5-2.86c.2-.28.26-.68.17-1l-1.91-3.46a.82.82 0 0 0-.68-.37h-7.12l-1.6-2.79a.74.74 0 0 0-.56-.4H12.4c-.28.01-.48.21-.62.45l-.05.1-3.56 6.1H4.76a.8.8 0 0 0-.7.37L2.09 12.5a.9.9 0 0 0 0 .8l3.54 6.15-1.6 2.79a.9.9 0 0 0 0 .8l1.82 3.18c.15.24.41.4.7.4h7.12l1.71 2.98c.13.23.36.37.62.4h4.03a.8.8 0 0 0 .68-.4l3.5-6.15h3.15a.87.87 0 0 0 .67-.42l1.81-3.2a.77.77 0 0 0 0-.85Zm-4.4.4-1.82-3.36-7.46 13.16-2.04-3.36H6.65l1.8-3.26h3.8L4.78 9.44h3.9l3.72-6.62 1.86 3.26-1.91 3.36h14.93l-1.89 3.34 3.76 6.6h-3.7Z"
    />
    <path d="m15.98 20.64 4.66-7.46H11.3l4.68 7.46Z" />
  </g>
</svg>
